storybook-static/images/in-the-news/espn.svg

<svg height="16" viewBox="0 0 62 16" width="62" xmlns="http://www.w3.org/2000/svg"><path d="m14.87 4.578-13.136.02c.009.008.576-4.097.576-4.097l13.045.01zm29.274-3.996c2.21 0 1.886 3.319 1.773 4.002l-30.113.014c.061-1.156.402-2.283 1.348-3.107.875-.684 1.458-.901 2.193-.901l24.8-.007zm15.856-.017c.895 0 1.442.722 1.671 1.353.23.632.121 2.152.032 2.682l-14.817-.016.405-4.011zm-31.789 5.845c2.13.004 2.162 1.294 1.725 4.67-.356 2.756-.478 4.592-1.952 4.592l-1.278.01h-12.202l.465-3.869 9.7.007c.79.009.629-1.911.629-1.911l-8.192-.012c-.9-.002-1.702-1.187-1.657-2.028l.12-1.46zm-14.068 3.493-8.152.014-.296 1.906h8.24l-.482 3.86h-13.208l1.253-9.273h13.068zm31.557-3.493c-.107.65-.447 3.418-2.316 3.418l-7.432.002-.804 5.852h-4.824l1.136-9.272zm4.558 9.272h-4.778l1.182-9.272h4.778zm10.144 0h-4.705l1.088-9.272h4.72z" fill="#fff" fill-rule="evenodd"/></svg>

<svg xmlns="http://www.w3.org/2000/svg" width="62" height="16" viewBox="0 0 62 16">
    <g fill="#FFF" fill-rule="evenodd">
        <path d="M14.87 4.578l-13.136.02c.009.008.576-4.097.576-4.097l13.045.01-.485 4.067zM44.144.582c2.21 0 1.886 3.319 1.773 4.002l-30.113.014c.061-1.156.402-2.283 1.348-3.107C18.027.807 18.61.59 19.345.59l24.8-.007zM60 .565c.895 0 1.442.722 1.671 1.353.23.632.121 2.152.032 2.682l-14.817-.016.405-4.011L60 .565zM28.211 6.41c2.13.004 2.162 1.294 1.725 4.67-.356 2.756-.478 4.592-1.952 4.592l-1.278.01H14.504l.465-3.869 9.7.007c.79.009.629-1.911.629-1.911l-8.192-.012c-.9-.002-1.702-1.187-1.657-2.028l.12-1.46 12.642.001zM14.143 9.903l-8.152.014-.296 1.906h8.24l-.482 3.86H.245L1.498 6.41h13.068zM45.7 6.41c-.107.65-.447 3.418-2.316 3.418l-7.432.002-.804 5.852h-4.824L31.46 6.41H45.7zM50.258 15.682H45.48l1.182-9.272h4.778zM60.402 15.682h-4.705l1.088-9.272h4.72z"/>
    </g>
</svg>
